assets/icons/qvision/shopping_basket.svg

<svg width="24" height="24" viewBox="0 0 24 24" fill="none" xmlns="http://www.w3.org/2000/svg">
<g clip-path="url(#clip0_147_4754)">
<path d="M17.21 8.99999L12.83 2.43999C12.64 2.15999 12.32 2.01999 12 2.01999C11.68 2.01999 11.36 2.15999 11.17 2.44999L6.79 8.99999H2C1.45 8.99999 1 9.44999 1 9.99999C1 10.09 1.01 10.18 1.04 10.27L3.58 19.54C3.81 20.38 4.58 21 5.5 21H18.5C19.42 21 20.19 20.38 20.43 19.54L22.97 10.27L23 9.99999C23 9.44999 22.55 8.99999 22 8.99999H17.21ZM9 8.99999L12 4.59999L15 8.99999H9ZM12 17C10.9 17 10 16.1 10 15C10 13.9 10.9 13 12 13C13.1 13 14 13.9 14 15C14 16.1 13.1 17 12 17Z" fill="#323232"/>
</g>
<defs>
<clipPath id="clip0_147_4754">
<rect width="24" height="24" fill="white"/>
</clipPath>
</defs>
</svg>

<svg xmlns="http://www.w3.org/2000/svg" height="24" viewBox="0 0 24 24" width="24"><path d="M0 0h24v24H0z" fill="none"/><path d="M17.21 9l-4.38-6.56c-.19-.28-.51-.42-.83-.42-.32 0-.64.14-.83.43L6.79 9H2c-.55 0-1 .45-1 1 0 .09.01.18.04.27l2.54 9.27c.23.84 1 1.46 1.92 1.46h13c.92 0 1.69-.62 1.93-1.46l2.54-9.27L23 10c0-.55-.45-1-1-1h-4.79zM9 9l3-4.4L15 9H9zm3 8c-1.1 0-2-.9-2-2s.9-2 2-2 2 .9 2 2-.9 2-2 2z"/></svg>
